src/img/feature/document.svg

<svg xmlns="http://www.w3.org/2000/svg" width="97" height="92"><path data-name="Forma 1" d="M98.408 55.884 81.089 88.635a6.85 6.85 0 0 1-5.105 3.351L6.531 92A5.526 5.526 0 0 1 1 86.474l.012-53.89a5.527 5.527 0 0 1 5.523-5.524h5.078v4.708h-3.4a2.506 2.506 0 0 0-2.506 2.502v50.518a2.508 2.508 0 0 0 2.509 2.507H11.7l16.414-33.18c.927-1.853 2.68-3.35 4.532-3.35h40.2l.013-13.353a5.144 5.144 0 0 1 4.7 5.1v8.249H95.99c2.177.026 4.01 2.177 2.418 5.123ZM14.815 70.592c-.15-16.514 0-66.061 0-66.061A4.537 4.537 0 0 1 19.349 0h36.309a2.076 2.076 0 0 1 1.528.671l11.739 12.744a2.08 2.08 0 0 1 .549 1.407v33.013h-3.808V17.672a.947.947 0 0 0-.947-.946h-8.985a1.906 1.906 0 0 1-1.906-1.9V4.751a.947.947 0 0 0-.947-.946H19.352a.727.727 0 0 0-.727.725v61.909l-2.914 5.891s-.881-.065-.896-1.738Zm42.825-57.67h5.66l-5.659-6.143v6.143ZM59.7 20.6H24.612a2.341 2.341 0 1 0 0 4.683H59.7a2.341 2.341 0 1 0 0-4.683Zm2.344 15.976a2.345 2.345 0 0 0-2.344-2.34H24.612a2.34 2.34 0 1 0 0 4.679H59.7a2.345 2.345 0 0 0 2.348-2.337Zm-39.775 13.73a2.342 2.342 0 0 0 2.342 2.339h.841a7.023 7.023 0 0 1 5.148-4.68h-5.989a2.344 2.344 0 0 0-2.342 2.341Z" transform="translate(-1)" style="fill:#44b313;fill-rule:evenodd"/></svg>

<svg xmlns="http://www.w3.org/2000/svg" width="97" height="92" viewBox="0 0 97 92">
  <defs>
    <style>
      .cls-1 {
        fill: #44b313;
        fill-rule: evenodd;
      }
    </style>
  </defs>
  <path id="Forma_1" data-name="Forma 1" class="cls-1" d="M98.408,55.884L81.089,88.635a6.85,6.85,0,0,1-5.105,3.351L6.531,92A5.526,5.526,0,0,1,1,86.474L1.012,32.584A5.527,5.527,0,0,1,6.535,27.06l5.078,0v4.708h-3.4A2.506,2.506,0,0,0,5.707,34.27l0,50.518a2.508,2.508,0,0,0,2.509,2.507H11.7L28.114,54.115c0.927-1.853,2.68-3.35,4.532-3.35h40.2l0.013-13.353a5.144,5.144,0,0,1,4.7,5.1v8.249H95.99C98.167,50.787,100,52.938,98.408,55.884ZM14.815,70.592c-0.15-16.514,0-66.061,0-66.061A4.537,4.537,0,0,1,19.349,0H55.658a2.076,2.076,0,0,1,1.528.671L68.925,13.415a2.08,2.08,0,0,1,.549,1.407V47.835H65.666V17.672a0.947,0.947,0,0,0-.947-0.946H55.734a1.906,1.906,0,0,1-1.906-1.9V4.751a0.947,0.947,0,0,0-.947-0.946H19.352a0.727,0.727,0,0,0-.727.725V66.439L15.711,72.33S14.83,72.265,14.815,70.592Zm42.825-57.67H63.3L57.641,6.779v6.143ZM59.7,20.6H24.612a2.341,2.341,0,1,0,0,4.683H59.7A2.341,2.341,0,1,0,59.7,20.6Zm2.344,15.976a2.345,2.345,0,0,0-2.344-2.34H24.612a2.34,2.34,0,1,0,0,4.679H59.7A2.345,2.345,0,0,0,62.048,36.578ZM22.269,50.306a2.342,2.342,0,0,0,2.342,2.339h0.841A7.023,7.023,0,0,1,30.6,47.965H24.611A2.344,2.344,0,0,0,22.269,50.306Z" transform="translate(-1)"/>
</svg>
